philips-hue/philips-hue-white.svg

<?xml version="1.0" encoding="UTF-8" standalone="no"?>
<svg
   xmlns:dc="http://purl.org/dc/elements/1.1/"
   xmlns:cc="http://creativecommons.org/ns#"
   xmlns:rdf="http://www.w3.org/1999/02/22-rdf-syntax-ns#"
   xmlns:svg="http://www.w3.org/2000/svg"
   xmlns="http://www.w3.org/2000/svg"
   xmlns:sodipodi="http://sodipodi.sourceforge.net/DTD/sodipodi-0.dtd"
   xmlns:inkscape="http://www.inkscape.org/namespaces/inkscape"
   version="1.1"
   width="24"
   height="24"
   viewBox="0 0 24.00 24.00"
   enable-background="new 0 0 24.00 24.00"
   xml:space="preserve"
   id="svg4697"
   sodipodi:docname="philips-hue-white.svg"
   inkscape:version="0.92.1 r15371"><metadata
     id="metadata4703"><rdf:RDF><cc:Work
         rdf:about=""><dc:format>image/svg+xml</dc:format><dc:type
           rdf:resource="http://purl.org/dc/dcmitype/StillImage" /><dc:title /></cc:Work></rdf:RDF></metadata><defs
     id="defs4701" /><sodipodi:namedview
     pagecolor="#ffffff"
     bordercolor="#666666"
     borderopacity="1"
     objecttolerance="10"
     gridtolerance="10"
     guidetolerance="10"
     inkscape:pageopacity="0"
     inkscape:pageshadow="2"
     inkscape:window-width="1435"
     inkscape:window-height="976"
     id="namedview4699"
     showgrid="true"
     inkscape:zoom="16"
     inkscape:cx="-2.8087391"
     inkscape:cy="15.587075"
     inkscape:window-x="212"
     inkscape:window-y="179"
     inkscape:window-maximized="0"
     inkscape:current-layer="svg4697"
     showguides="true"
     inkscape:guide-bbox="true"><inkscape:grid
       type="xygrid"
       id="grid4705" /><sodipodi:guide
       position="12,12"
       orientation="1,0"
       id="guide4926"
       inkscape:locked="false" /></sodipodi:namedview><g
     id="g4944"
     transform="matrix(0.83331073,0,0,0.83331073,2.0002716,2.0000001)"><path
       style="stroke-width:0.75"
       d="M 12,3 C 9.075,3 6.75,4.5007812 6.75,7.8007812 6.75,8.3257812 6.8257812,8.925 7.0507812,9.375 8.6257812,9.15 10.275,9 12,9 13.725,9 15.374219,9.15 16.949219,9.375 17.174219,8.85 17.25,8.3257812 17.25,7.8007812 17.25,4.5007812 14.925,3 12,3 Z m 0,6.75 c -1.575,0 -3.1503906,0.15 -4.6503906,0.375 0,0 1.1257812,2.400391 1.4257812,3.150391 0.45,0.975 0.4492188,2.474609 0.4492188,2.474609 0,0 -0.073828,0.300391 0.4511718,1.650391 0.075,0.15 0.2250001,0.224609 0.3749998,0.224609 H 12 h 0.07422 1.951172 c 0.15,0 0.3,-0.07461 0.375,-0.224609 0.45,-1.275 0.375,-1.650391 0.375,-1.650391 0,0 -7.82e-4,-1.35 0.449218,-2.25 0.3,-0.75 1.425782,-3.225781 1.425782,-3.300781 C 15.150391,9.9742188 13.65,9.75 12,9.75 Z m -1.5,9 v 0.75 c 0,0 0,0.75 0.75,0.75 0,0 0,0.75 0.75,0.75 0.75,0 0.75,-0.75 0.75,-0.75 0.75,0 0.75,-0.75 0.75,-0.75 v -0.75 z"
       transform="matrix(1.3333333,0,0,1.3333333,-4,-4)"
       id="path4928"
       inkscape:connector-curvature="0" /></g></svg>

<?xml version="1.0" encoding="UTF-8" standalone="no"?>
<svg
   xmlns:dc="http://purl.org/dc/elements/1.1/"
   xmlns:cc="http://creativecommons.org/ns#"
   xmlns:rdf="http://www.w3.org/1999/02/22-rdf-syntax-ns#"
   xmlns:svg="http://www.w3.org/2000/svg"
   xmlns="http://www.w3.org/2000/svg"
   xmlns:sodipodi="http://sodipodi.sourceforge.net/DTD/sodipodi-0.dtd"
   xmlns:inkscape="http://www.inkscape.org/namespaces/inkscape"
   version="1.1"
   width="24"
   height="24"
   viewBox="0 0 24.00 24.00"
   enable-background="new 0 0 24.00 24.00"
   xml:space="preserve"
   id="svg4697"
   sodipodi:docname="philips-hue-white.svg"
   inkscape:version="0.92.1 r15371"><metadata
     id="metadata4703"><rdf:RDF><cc:Work
         rdf:about=""><dc:format>image/svg+xml</dc:format><dc:type
           rdf:resource="http://purl.org/dc/dcmitype/StillImage" /><dc:title /></cc:Work></rdf:RDF></metadata><defs
     id="defs4701" /><sodipodi:namedview
     pagecolor="#ffffff"
     bordercolor="#666666"
     borderopacity="1"
     objecttolerance="10"
     gridtolerance="10"
     guidetolerance="10"
     inkscape:pageopacity="0"
     inkscape:pageshadow="2"
     inkscape:window-width="1435"
     inkscape:window-height="976"
     id="namedview4699"
     showgrid="true"
     inkscape:zoom="19.666667"
     inkscape:cx="12.320156"
     inkscape:cy="10.741848"
     inkscape:window-x="212"
     inkscape:window-y="179"
     inkscape:window-maximized="0"
     inkscape:current-layer="svg4697"
     showguides="true"
     inkscape:guide-bbox="true"><inkscape:grid
       type="xygrid"
       id="grid4705" /><sodipodi:guide
       position="12,12"
       orientation="1,0"
       id="guide4926"
       inkscape:locked="false" /></sodipodi:namedview><g
     id="g4944"
     transform="matrix(0.75,0,0,0.75,3,3)"><path
       style="stroke-width:0.75"
       d="M 12 3 C 9.075 3 6.75 4.5007812 6.75 7.8007812 C 6.75 8.3257812 6.8257812 8.925 7.0507812 9.375 C 8.6257812 9.15 10.275 9 12 9 C 13.725 9 15.374219 9.15 16.949219 9.375 C 17.174219 8.85 17.25 8.3257812 17.25 7.8007812 C 17.25 4.5007812 14.925 3 12 3 z M 12 9.75 C 10.425 9.75 8.8496094 9.9 7.3496094 10.125 C 7.3496094 10.125 8.4753906 12.525391 8.7753906 13.275391 C 9.2253906 14.250391 9.2246094 15.75 9.2246094 15.75 C 9.2246094 15.75 9.1507812 16.050391 9.6757812 17.400391 C 9.7507812 17.550391 9.9007813 17.625 10.050781 17.625 L 12 17.625 L 12.074219 17.625 L 14.025391 17.625 C 14.175391 17.625 14.325391 17.550391 14.400391 17.400391 C 14.850391 16.125391 14.775391 15.75 14.775391 15.75 C 14.775391 15.75 14.774609 14.4 15.224609 13.5 C 15.524609 12.75 16.650391 10.274219 16.650391 10.199219 C 15.150391 9.9742188 13.65 9.75 12 9.75 z M 10.5 18.75 L 10.5 19.5 C 10.5 19.5 10.5 20.25 11.25 20.25 C 11.25 20.25 11.25 21 12 21 C 12.75 21 12.75 20.25 12.75 20.25 C 13.5 20.25 13.5 19.5 13.5 19.5 L 13.5 18.75 L 10.5 18.75 z "
       transform="matrix(1.3333333,0,0,1.3333333,-4,-4)"
       id="path4928" /></g></svg>
